assets/svg/networks/wallet_eth.svg

<svg width="36" height="36" viewBox="0 0 36 36" fill="none" xmlns="http://www.w3.org/2000/svg">
<g clip-path="url(#clip0_19002_45693)">
<rect width="36" height="36" rx="10" fill="#627EEA"/>
<path d="M18.5603 4.5V14.4788L26.9944 18.2475L18.5603 4.5Z" fill="white" fill-opacity="0.602"/>
<path d="M18.5602 4.5L10.125 18.2475L18.5602 14.4788V4.5Z" fill="white"/>
<path d="M18.5603 24.714V31.4944L27.0001 19.818L18.5603 24.714Z" fill="white" fill-opacity="0.602"/>
<path d="M18.5602 31.4944V24.7129L10.125 19.818L18.5602 31.4944Z" fill="white"/>
<path d="M18.5603 23.1446L26.9944 18.2475L18.5603 14.481V23.1446Z" fill="white" fill-opacity="0.2"/>
<path d="M10.125 18.2475L18.5602 23.1446V14.481L10.125 18.2475Z" fill="white" fill-opacity="0.602"/>
</g>
<defs>
<clipPath id="clip0_19002_45693">
<rect width="36" height="36" fill="white"/>
</clipPath>
</defs>
</svg>

<svg xmlns="http://www.w3.org/2000/svg" width="36" height="36" fill="none"><g clip-path="url(#a)"><rect width="36" height="36" fill="#627EEA" rx="10"/><path fill="#fff" fill-opacity=".602" d="M18.56 4.5v9.979l8.434 3.768z"/><path fill="#fff" d="m18.56 4.5-8.435 13.747 8.435-3.768z"/><path fill="#fff" fill-opacity=".602" d="M18.56 24.714v6.78L27 19.818z"/><path fill="#fff" d="M18.56 31.494v-6.781l-8.435-4.895z"/><path fill="#fff" fill-opacity=".2" d="m18.56 23.145 8.434-4.898-8.434-3.766z"/><path fill="#fff" fill-opacity=".602" d="m10.125 18.248 8.435 4.897V14.48z"/></g><defs><clipPath id="a"><path fill="#fff" d="M0 0h36v36H0z"/></clipPath></defs></svg>
